src/travel-places/sky-weather/2601.svg

<svg id="emoji" viewBox="0 0 72 72" xmlns="http://www.w3.org/2000/svg">
  <g id="grid">
    <path fill="#b3b3b3" d="M68,4V68H4V4H68m4-4H0V72H72V0Z"/>
    <path fill="none" stroke="#00a5ff" stroke-miterlimit="10" stroke-width="0.1" d="M12.923,10.9583H59.0769A1.9231,1.9231,0,0,1,61,12.8814V59.0352a1.9231,1.9231,0,0,1-1.9231,1.9231H12.9231A1.9231,1.9231,0,0,1,11,59.0352V12.8813A1.923,1.923,0,0,1,12.923,10.9583Z"/>
    <rect x="16" y="4" rx="2.2537" width="40" height="64" fill="none" stroke="#00a5ff" stroke-miterlimit="10" stroke-width="0.1"/>
    <rect x="16" y="4" rx="2.2537" width="40" height="64" transform="translate(72) rotate(90)" fill="none" stroke="#00a5ff" stroke-miterlimit="10" stroke-width="0.1"/>
    <circle cx="36" cy="36" r="29" fill="none" stroke="#00a5ff" stroke-miterlimit="10" stroke-width="0.1"/>
  </g>
  <g id="color">
    <path fill="#D0CFCE" stroke="none" d="M15.9345,30.2552c-0.0372,0.4242-0.3809,0.7675-0.8065,0.8131C9.9685,31.621,6,36.7013,6,42.8852 c0,6.553,4.5445,11.8652,10.1505,11.8652h38.6977C61.0072,54.7504,66,49.1365,66,42.2114c0-6.6366-4.5855-12.069-10.3883-12.5101 c-0.4439-0.0337-0.804-0.3445-0.8887-0.7793c-1.2963-6.6567-7.2763-11.659-14.3464-11.659c-4.5948,0-8.6879,2.0802-11.3459,5.3894 c-0.2597,0.3234-0.6956,0.4715-1.079,0.3107c-1.0228-0.4289-2.103-0.6365-3.3117-0.6365 C20.0727,22.3266,16.3237,25.8122,15.9345,30.2552z"/>
  </g>
  <g id="hair"/>
  <g id="skin"/>
  <g id="skin-shadow"/>
  <g id="line">
    <path fill="none" stroke="#000000" stroke-linecap="round" stroke-linejoin="round" stroke-miterlimit="10" stroke-width="2" d="M15.9345,30.2552c-0.0372,0.4242-0.3794,0.7675-0.8028,0.8127C9.9704,31.6186,6,36.6998,6,42.8852 c0,6.553,4.5445,11.8652,10.1505,11.8652h38.6977C61.0072,54.7504,66,49.1365,66,42.2114c0-6.6379-4.5872-12.0711-10.3916-12.5103 c-0.4421-0.0335-0.8008-0.3444-0.8855-0.7796c-1.2964-6.6564-7.2763-11.6585-14.3462-11.6585 c-4.5964,0-8.6908,2.0817-11.3486,5.3929c-0.2582,0.3217-0.6903,0.4696-1.0705,0.3097c-1.0245-0.4306-2.1065-0.639-3.3175-0.639 C20.0727,22.3266,16.3237,25.8122,15.9345,30.2552z"/>
  </g>
</svg>

<svg viewBox="0 0 72 72" xmlns="http://www.w3.org/2000/svg"><path fill="#b3b3b3" d="M68 4v64H4V4h64m4-4H0v72h72V0z"/><path fill="none" stroke="#00a5ff" stroke-miterlimit="10" stroke-width=".1" d="M12.923 10.958h46.154A1.923 1.923 0 0161 12.881v46.154a1.923 1.923 0 01-1.923 1.923H12.923A1.923 1.923 0 0111 59.035V12.881a1.923 1.923 0 011.923-1.923z"/><rect x="16" y="4" rx="2.254" width="40" height="64" fill="none" stroke="#00a5ff" stroke-miterlimit="10" stroke-width=".1"/><rect x="16" y="4" rx="2.254" width="40" height="64" transform="rotate(90 36 36)" fill="none" stroke="#00a5ff" stroke-miterlimit="10" stroke-width=".1"/><circle cx="36" cy="36" r="29" fill="none" stroke="#00a5ff" stroke-miterlimit="10" stroke-width=".1"/><path d="M15.934 30.255a.905.905 0 01-.802.813C9.97 31.618 6 36.7 6 42.885c0 6.553 4.545 11.865 10.15 11.865h38.698C61.008 54.75 66 49.136 66 42.211c0-6.638-4.587-12.07-10.392-12.51a.964.964 0 01-.885-.78c-1.296-6.656-7.276-11.658-14.346-11.658-4.597 0-8.691 2.082-11.349 5.393-.258.322-.69.47-1.07.31-1.025-.431-2.107-.64-3.318-.64-4.567 0-8.316 3.486-8.706 7.93z" stroke-linecap="round" stroke-miterlimit="10" stroke-width="6" stroke="#fff" fill="none" stroke-linejoin="round"/><path fill="#D0CFCE" d="M15.934 30.255a.908.908 0 01-.806.813C9.968 31.621 6 36.701 6 42.885c0 6.553 4.545 11.865 10.15 11.865h38.698C61.008 54.75 66 49.136 66 42.211c0-6.636-4.585-12.069-10.388-12.51a.966.966 0 01-.889-.779c-1.296-6.657-7.276-11.659-14.346-11.659-4.595 0-8.688 2.08-11.346 5.39-.26.323-.696.47-1.08.31-1.022-.429-2.102-.636-3.311-.636-4.567 0-8.316 3.485-8.706 7.928z"/><path fill="none" stroke="#000" stroke-linecap="round" stroke-linejoin="round" stroke-miterlimit="10" stroke-width="2" d="M15.934 30.255a.905.905 0 01-.802.813C9.97 31.618 6 36.7 6 42.885c0 6.553 4.545 11.865 10.15 11.865h38.698C61.008 54.75 66 49.136 66 42.211c0-6.638-4.587-12.07-10.392-12.51a.964.964 0 01-.885-.78c-1.296-6.656-7.276-11.658-14.346-11.658-4.597 0-8.691 2.082-11.349 5.393-.258.322-.69.47-1.07.31-1.025-.431-2.107-.64-3.318-.64-4.567 0-8.316 3.486-8.706 7.93z"/></svg>
